X:1
T:My Boy, Billy Boy
M:2/4
L:1/8
K:G
 GG GG| Bc d2| c2 B2| AAG-F| GG GG| Bc d2| ee d^c| d2 d2| ec c2| dB B2|\
 cB AG| FE D2| GA Bc| d2 g2| BG AB| G2 G2|
